!! 00000] TT[00
!! NN
!!!OTL: Shoutou de zhuangjia yi pian huang
!!!ARE: Asia, China,ÿAnhui, Wuhu(Sued)
!! Ethnic Group: Han
!! III, 530
!!!SCT: C0338
!!!YEM: Copyright 1995, estate of Helmut Schaffrath.
**kern
*ICvox
*Ivox
*M2/4
*k[f#c#g#]
*A:
{8aa
8aa
4ff#
=1
8aa
8bb
4ff#
=2
8.aa
16bb
8ccc#
8eee
=3
8aa
8bb
4bb}
=4
{8ccc#
16ccc#
16bb
8aa
8bb
=5
8bb
8ff#
4ff#}
=6
{8ccc#
16ccc#
16bb
8aa
8bb
=7
8bb
8ff#
4ff#}
=8
{8aa
8ff#
8ee
8ff#
=9
4ff#
4ff#}
=10
{8aa
8bb
8ff#
8ff#
=11
8.aa
16bb
8ccc#
8bb
=12
8.aa
16bb
8aa
8ff#
=13
8ee
8cc#
8cc#
8ee
=14
2ff#}
=15
{8aa
4aa
8ff#
=16
4ff#
8ff#
8ff#
=17
4.ee
8ff#
=18
2ff#}
=19
{8aa
4aa
8bb
=20
4ff#
4ee
=21
8aa
4aa
8bb
=22
4ff#
4ee}
=23
{8ff#
16ff#
16ff#
8ff#
8ee
=24
8cc#
8ee
4r}
=25
{8ff#
16ff#
16ff#
8ff#
8ee
=26
8cc#
8ee
4r}
=27
{8ccc#
16ccc#
16bb
8aa
8bb
=28
8bb
8ff#
4ff#}
=29
{8aa
8ff#
8ee
8ff#
=30
4ff#
4ff#}
==
!!!AGN: Xiaodiao. Xin minge
!! Vom Xiaodiao,beeinflusst. Vorsaenger + Chor. Aehnlich wie in Nord-Jiangsu.
!!    Weni Verzierungen, Glissandi. Vorspiel weggelassen.
!!!ONB: ESAC (Essen Associative Code) Database: CHINA
!!!AMT: simple duple
!!!AIN: vox
!!!EED: Helmut Schaffrath
!!!EEV: 1.0
*-
